assets/Mantelpiece clock/Flat/mantelpiece_clock_flat.svg

<svg width="32" height="32" viewBox="0 0 32 32" fill="none" xmlns="http://www.w3.org/2000/svg">
<path d="M29.18 24.0003C27.98 24.0003 27.01 23.0303 27.01 21.8303V13.0003H27C27.01 7.76026 23.26 3.11026 17.92 2.17026C11.94 1.11026 6.23 5.11026 5.17 11.0903C5.06 11.7303 5.01 12.3703 5.01 13.0003H5V21.8303C5 23.0303 4.03 24.0003 2.83 24.0003C2.37 24.0003 2 24.3703 2 24.8303V26.1703C2 26.6303 2.37 27.0003 2.83 27.0003H3.5L16 28L28.5 27.0003H29.17C29.63 27.0003 30 26.6303 30 26.1703V24.8303C30.01 24.3703 29.64 24.0003 29.18 24.0003Z" fill="#6D4534"/>
<path d="M16.01 22.0002C20.9806 22.0002 25.01 17.9708 25.01 13.0002C25.01 8.02968 20.9806 4.00024 16.01 4.00024C11.0394 4.00024 7.01001 8.02968 7.01001 13.0002C7.01001 17.9708 11.0394 22.0002 16.01 22.0002Z" fill="white"/>
<path d="M16.01 13.5002H16C15.72 13.5002 15.5 13.2802 15.5 13.0002C15.5 12.9652 15.5034 12.9311 15.51 12.8983V9.50024C15.51 9.22024 15.73 9.00024 16.01 9.00024C16.29 9.00024 16.51 9.22024 16.51 9.50024V12.5002H20.51C20.79 12.5002 21.01 12.7202 21.01 13.0002C21.01 13.2802 20.78 13.5002 20.51 13.5002H16.01Z" fill="#212121"/>
<path d="M16.51 5.50024C16.51 5.2241 16.2862 5.00024 16.01 5.00024C15.7339 5.00024 15.51 5.2241 15.51 5.50024V6.50024C15.51 6.77639 15.7339 7.00024 16.01 7.00024C16.2862 7.00024 16.51 6.77639 16.51 6.50024V5.50024ZM2.01001 28.5002C2.01001 27.6702 2.68001 27.0002 3.51001 27.0002H28.51C29.34 27.0002 30.01 27.6702 30.01 28.5002C30.01 29.3302 29.34 30.0002 28.51 30.0002H3.51001C2.68001 30.0002 2.01001 29.3302 2.01001 28.5002ZM16.01 19.0303C16.2862 19.0303 16.51 19.2541 16.51 19.5303V20.5303C16.51 20.8064 16.2862 21.0303 16.01 21.0303C15.7339 21.0303 15.51 20.8064 15.51 20.5303V19.5303C15.51 19.2541 15.7339 19.0303 16.01 19.0303ZM22.52 12.5203C22.2439 12.5203 22.02 12.7441 22.02 13.0203C22.02 13.2964 22.2439 13.5203 22.52 13.5203H23.52C23.7962 13.5203 24.02 13.2964 24.02 13.0203C24.02 12.7441 23.7962 12.5203 23.52 12.5203H22.52ZM7.98999 13.0203C7.98999 12.7441 8.21385 12.5203 8.48999 12.5203H9.48999C9.76613 12.5203 9.98999 12.7441 9.98999 13.0203C9.98999 13.2964 9.76613 13.5203 9.48999 13.5203H8.48999C8.21385 13.5203 7.98999 13.2964 7.98999 13.0203ZM21.676 8.05123C21.8699 7.85459 21.8677 7.53801 21.671 7.34414C21.4744 7.15027 21.1578 7.15252 20.9639 7.34916L20.2639 8.05916C20.0701 8.2558 20.0723 8.57238 20.269 8.76625C20.4656 8.96012 20.7822 8.95787 20.976 8.76123L21.676 8.05123ZM11.7536 17.2667C11.9488 17.4619 11.9488 17.7785 11.7536 17.9738L11.0436 18.6838C10.8483 18.8791 10.5317 18.8791 10.3364 18.6838C10.1412 18.4885 10.1412 18.1719 10.3364 17.9767L11.0464 17.2667C11.2417 17.0714 11.5583 17.0714 11.7536 17.2667ZM20.976 17.2692C20.7822 17.0726 20.4656 17.0703 20.269 17.2642C20.0723 17.4581 20.0701 17.7746 20.2639 17.9713L20.9639 18.6813C21.1578 18.8779 21.4744 18.8802 21.671 18.6863C21.8677 18.4924 21.8699 18.1758 21.676 17.9792L20.976 17.2692ZM10.3364 7.34664C10.5317 7.15138 10.8483 7.15138 11.0436 7.34664L11.7536 8.05664C11.9488 8.2519 11.9488 8.56849 11.7536 8.76375C11.5583 8.95901 11.2417 8.95901 11.0464 8.76375L10.3364 8.05375C10.1412 7.85849 10.1412 7.5419 10.3364 7.34664ZM16.01 14.2502C16.7004 14.2502 17.26 13.6906 17.26 13.0002C17.26 12.3099 16.7004 11.7502 16.01 11.7502C15.3197 11.7502 14.76 12.3099 14.76 13.0002C14.76 13.6906 15.3197 14.2502 16.01 14.2502Z" fill="#F9C23C"/>
</svg>

<svg xmlns="http://www.w3.org/2000/svg" width="32" height="32" fill="none"><path fill="#6D4534" d="M29.18 24c-1.2 0-2.17-.97-2.17-2.17V13H27c.01-5.24-3.74-9.89-9.08-10.83-5.98-1.06-11.69 2.94-12.75 8.92-.11.64-.16 1.28-.16 1.91H5v8.83C5 23.03 4.03 24 2.83 24c-.46 0-.83.37-.83.83v1.34c0 .46.37.83.83.83h.67L16 28l12.5-1h.67c.46 0 .83-.37.83-.83v-1.34a.813.813 0 0 0-.82-.83Z"/><path fill="#fff" d="M16.01 22a9 9 0 1 0 0-18 9 9 0 0 0 0 18Z"/><path fill="#212121" d="M16.01 13.5H16a.495.495 0 0 1-.49-.602V9.5c0-.28.22-.5.5-.5s.5.22.5.5v3h4c.28 0 .5.22.5.5s-.23.5-.5.5h-4.5Z"/><path fill="#F9C23C" d="M16.51 5.5a.5.5 0 1 0-1 0v1a.5.5 0 0 0 1 0v-1Zm-14.5 23c0-.83.67-1.5 1.5-1.5h25c.83 0 1.5.67 1.5 1.5s-.67 1.5-1.5 1.5h-25c-.83 0-1.5-.67-1.5-1.5Zm14-9.47a.5.5 0 0 1 .5.5v1a.5.5 0 1 1-1 0v-1a.5.5 0 0 1 .5-.5Zm6.51-6.51a.5.5 0 1 0 0 1h1a.5.5 0 1 0 0-1h-1Zm-14.53.5a.5.5 0 0 1 .5-.5h1a.5.5 0 1 1 0 1h-1a.5.5 0 0 1-.5-.5Zm13.686-4.969a.5.5 0 1 0-.712-.702l-.7.71a.5.5 0 0 0 .712.702l.7-.71Zm-9.922 9.216a.5.5 0 0 1 0 .707l-.71.71a.5.5 0 0 1-.708-.707l.71-.71a.5.5 0 0 1 .708 0Zm9.222.002a.5.5 0 1 0-.712.702l.7.71a.5.5 0 0 0 .712-.702l-.7-.71Zm-10.64-9.922a.5.5 0 0 1 .708 0l.71.71a.5.5 0 0 1-.708.707l-.71-.71a.5.5 0 0 1 0-.707Zm5.674 6.903a1.25 1.25 0 1 0 0-2.5 1.25 1.25 0 0 0 0 2.5Z"/></svg>
